X: 20644
M: 6/8
L: 1/8
K: F
!f!F |\
!f!A2F c2A | f3 fag | fag fed | {d}c2c c2 :|
|: D |\
f2a f2a | g2b g2b | agf gfe | f2f f2 :|


